packages/sources/assets/src/assets/flag-ke.svg

<svg width="28" height="20" viewBox="0 0 28 20" fill="none" xmlns="http://www.w3.org/2000/svg">
<rect width="28" height="20" rx="2" fill="white"/>
<mask id="mask0_503_2848" style="mask-type:alpha" maskUnits="userSpaceOnUse" x="0" y="0" width="28" height="20">
<rect width="28" height="20" rx="2" fill="white"/>
</mask>
<g mask="url(#mask0_503_2848)">
<path fill-rule="evenodd" clip-rule="evenodd" d="M0 5.33333H28V0H0V5.33333Z" fill="#262626"/>
<path fill-rule="evenodd" clip-rule="evenodd" d="M0 20H28V14.6667H0V20Z" fill="#018301"/>
<path fill-rule="evenodd" clip-rule="evenodd" d="M0 14.6667H28V5.33334H0V14.6667Z" fill="white"/>
<path fill-rule="evenodd" clip-rule="evenodd" d="M0 13.3333H28V6.66666H0V13.3333Z" fill="#DC0808"/>
<path fill-rule="evenodd" clip-rule="evenodd" d="M14 16.6667C15.3334 16.6667 17.3334 14.0501 17.3334 10C17.3334 5.94992 15.3334 3.33334 14 3.33334C12.6667 3.33334 10.6667 5.94992 10.6667 10C10.6667 14.0501 12.6667 16.6667 14 16.6667Z" fill="#BC0000"/>
<mask id="mask1_503_2848" style="mask-type:alpha" maskUnits="userSpaceOnUse" x="10" y="3" width="8" height="14">
<path fill-rule="evenodd" clip-rule="evenodd" d="M14 16.6667C15.3334 16.6667 17.3334 14.0501 17.3334 10C17.3334 5.94992 15.3334 3.33334 14 3.33334C12.6667 3.33334 10.6667 5.94992 10.6667 10C10.6667 14.0501 12.6667 16.6667 14 16.6667Z" fill="white"/>
</mask>
<g mask="url(#mask1_503_2848)">
<path fill-rule="evenodd" clip-rule="evenodd" d="M8.66671 17.3334C10.5077 17.3334 12 14.0501 12 10C12 5.94993 10.5077 2.66669 8.66671 2.66669C6.82576 2.66669 5.33337 5.94993 5.33337 10C5.33337 14.0501 6.82576 17.3334 8.66671 17.3334Z" fill="#262626"/>
<path fill-rule="evenodd" clip-rule="evenodd" d="M19.3333 17.3334C21.1743 17.3334 22.6667 14.0501 22.6667 10C22.6667 5.94993 21.1743 2.66669 19.3333 2.66669C17.4924 2.66669 16 5.94993 16 10C16 14.0501 17.4924 17.3334 19.3333 17.3334Z" fill="#262626"/>
<g filter="url(#filter0_d_503_2848)">
<path fill-rule="evenodd" clip-rule="evenodd" d="M14 8.00002C14.3682 8.00002 14.6667 6.80611 14.6667 5.33335C14.6667 3.86059 14.3682 2.66669 14 2.66669C13.6319 2.66669 13.3334 3.86059 13.3334 5.33335C13.3334 6.80611 13.6319 8.00002 14 8.00002ZM14 12C14.3682 12 14.6667 11.1046 14.6667 10C14.6667 8.89545 14.3682 8.00002 14 8.00002C13.6319 8.00002 13.3334 8.89545 13.3334 10C13.3334 11.1046 13.6319 12 14 12ZM14 12C13.6319 12 13.3334 13.1939 13.3334 14.6667C13.3334 16.1394 13.6319 17.3334 14 17.3334C14.3682 17.3334 14.6667 16.1394 14.6667 14.6667C14.6667 13.1939 14.3682 12 14 12Z" fill="url(#paint0_linear_503_2848)"/>
</g>
</g>
</g>
<defs>
<filter id="filter0_d_503_2848" x="13.3334" y="2.66669" width="1.33331" height="15.6667" filterUnits="userSpaceOnUse" color-interpolation-filters="sRGB">
<feFlood flood-opacity="0" result="BackgroundImageFix"/>
<feColorMatrix in="SourceAlpha" type="matrix" values="0 0 0 0 0 0 0 0 0 0 0 0 0 0 0 0 0 0 127 0" result="hardAlpha"/>
<feOffset dy="1"/>
<feColorMatrix type="matrix" values="0 0 0 0 0 0 0 0 0 0 0 0 0 0 0 0 0 0 0.06 0"/>
<feBlend mode="normal" in2="BackgroundImageFix" result="effect1_dropShadow_503_2848"/>
<feBlend mode="normal" in="SourceGraphic" in2="effect1_dropShadow_503_2848" result="shape"/>
</filter>
<linearGradient id="paint0_linear_503_2848" x1="13.3334" y1="2.66669" x2="13.3334" y2="17.3334" gradientUnits="userSpaceOnUse">
<stop stop-color="white"/>
<stop offset="1" stop-color="#F0F0F0"/>
</linearGradient>
</defs>
</svg>

<svg width="28" height="20" fill="none" xmlns="http://www.w3.org/2000/svg"><rect width="28" height="20" rx="2" fill="#fff"/><mask id="a" style="mask-type:alpha" maskUnits="userSpaceOnUse" x="0" y="0" width="28" height="20"><rect width="28" height="20" rx="2" fill="#fff"/></mask><g mask="url(#a)"><path fill-rule="evenodd" clip-rule="evenodd" d="M0 5.333h28V0H0v5.333Z" fill="#262626"/><path fill-rule="evenodd" clip-rule="evenodd" d="M0 20h28v-5.333H0V20Z" fill="#018301"/><path fill-rule="evenodd" clip-rule="evenodd" d="M0 14.667h28V5.333H0v9.334Z" fill="#fff"/><path fill-rule="evenodd" clip-rule="evenodd" d="M0 13.333h28V6.667H0v6.666Z" fill="#DC0808"/><path fill-rule="evenodd" clip-rule="evenodd" d="M14 16.667c1.333 0 3.333-2.617 3.333-6.667s-2-6.667-3.333-6.667c-1.333 0-3.333 2.617-3.333 6.667s2 6.667 3.333 6.667Z" fill="#BC0000"/><mask id="b" style="mask-type:alpha" maskUnits="userSpaceOnUse" x="10" y="3" width="8" height="14"><path fill-rule="evenodd" clip-rule="evenodd" d="M14 16.667c1.333 0 3.333-2.617 3.333-6.667s-2-6.667-3.333-6.667c-1.333 0-3.333 2.617-3.333 6.667s2 6.667 3.333 6.667Z" fill="#fff"/></mask><g mask="url(#b)"><path fill-rule="evenodd" clip-rule="evenodd" d="M8.667 17.333C10.507 17.333 12 14.05 12 10c0-4.05-1.492-7.333-3.333-7.333-1.841 0-3.334 3.283-3.334 7.333 0 4.05 1.493 7.333 3.334 7.333Zm10.666 0c1.841 0 3.334-3.283 3.334-7.333 0-4.05-1.493-7.333-3.334-7.333C17.493 2.667 16 5.95 16 10c0 4.05 1.492 7.333 3.333 7.333Z" fill="#262626"/><g filter="url(#c)"><path fill-rule="evenodd" clip-rule="evenodd" d="M14 8c.368 0 .667-1.194.667-2.667 0-1.472-.299-2.666-.667-2.666-.368 0-.667 1.194-.667 2.666C13.333 6.806 13.632 8 14 8Zm0 4c.368 0 .667-.895.667-2S14.368 8 14 8c-.368 0-.667.895-.667 2s.299 2 .667 2Zm0 0c-.368 0-.667 1.194-.667 2.667 0 1.472.299 2.666.667 2.666.368 0 .667-1.194.667-2.666 0-1.473-.299-2.667-.667-2.667Z" fill="url(#d)"/></g></g></g><defs><linearGradient id="d" x1="13.333" y1="2.667" x2="13.333" y2="17.333" gradientUnits="userSpaceOnUse"><stop stop-color="#fff"/><stop offset="1" stop-color="#F0F0F0"/></linearGradient><filter id="c" x="13.333" y="2.667" width="1.333" height="15.667" filterUnits="userSpaceOnUse" color-interpolation-filters="sRGB"><feFlood flood-opacity="0" result="BackgroundImageFix"/><feColorMatrix in="SourceAlpha" values="0 0 0 0 0 0 0 0 0 0 0 0 0 0 0 0 0 0 127 0" result="hardAlpha"/><feOffset dy="1"/><feColorMatrix values="0 0 0 0 0 0 0 0 0 0 0 0 0 0 0 0 0 0 0.06 0"/><feBlend in2="BackgroundImageFix" result="effect1_dropShadow_503_2848"/><feBlend in="SourceGraphic" in2="effect1_dropShadow_503_2848" result="shape"/></filter></defs></svg>
